X:6802
T:The Frittenden Brass Band
O:england
R:jig
C:Composer: Gavin Atkin
S:Copyright: Gavin Atkin 1997
M:6/8
L:1/8
Q:120
K:G
"D" |: B/2^c/2 | "G" dBG GAB | "D" AFD D2 C | "G" B,DG "C" CEG |
"G" BAG "D7" A2 B/2^c/2 | "G" dBG GAB | "D" AFD D2 C |
"G" B,DG "C" CcB | "D7" ~AGF "G" G2 :|
|: B/2c/2 | "G" dBd "Em" gfe | "G" dBG "C" c2 B/2c/2 | "G" dBd "Em" gfe
|
"G" dBG "D7" A2 B/2c/2 | "G" dBd "Em" gfe |
"G" dBG "C" E2 "D7" G/2A/2 | "G" BdB "D" ABA |
"C" ~G G .G "G" G2 "D7" :|


